Obsidian-SemiLight/actions/16s/archive-remove.svg

<svg viewBox="0 0 16 16" xmlns="http://www.w3.org/2000/svg"><path d="m3 2v1 10 1h1 4v-1h-4v-10h8v5h1v-5-1h-1-8z" fill="#4d4d4d"/><path d="m430.71429 542.79071h5v1h-5z" fill="#da4453" transform="translate(-421.71429 -531.79074)"/></svg>

<svg xmlns="http://www.w3.org/2000/svg" viewBox="0 0 16 16">
  <defs id="defs3051">
    <style type="text/css" id="current-color-scheme">
      .ColorScheme-Text {
        color:#4d4d4d;
      }
      .ColorScheme-NegativeText {
        color:#da4453;
      }
      </style>
  </defs>
 <path style="fill:currentColor;fill-opacity:1;stroke:none" 
     d="M 3 2 L 3 3 L 3 13 L 3 14 L 4 14 L 8 14 L 8 13 L 4 13 L 4 3 L 12 3 L 12 8 L 13 8 L 13 3 L 13 2 L 12 2 L 4 2 L 3 2 z "
     class="ColorScheme-Text"
     /> 
 <path
      style="fill:currentColor;fill-opacity:1;stroke:none" 
     class="ColorScheme-NegativeText"
      transform="translate(-421.71429,-531.79074)"
       d="m 430.71429,542.79071 5,0 0,1 -5,0 z"
     />
</svg>
